mapstyles/mapsforge_peruskartta/mml/SVaPita.svg

<svg xmlns="http://www.w3.org/2000/svg" xml:space="preserve" width="481.25" height="706.25"><path d="M-210 720h1860M720 2030v790" style="fill:none;stroke:#000;stroke-width:250;stroke-linecap:butt;stroke-linejoin:miter;stroke-miterlimit:10;stroke-opacity:1;stroke-dasharray:none" transform="matrix(.13 0 0 -.13 148.125 780.625)"/><path d="M-210 720h1860M720 2030v790L0 4070h1440L720 2820v2900L0 4470h1440L720 5720M120 4620h1200m-100 150H220m100 200h800m-100 200H420m150 200h300M120 3920h1200m-100-150H220m100-200h800m-100-200H420m150-200h300m430-2350v750" style="fill:none;stroke:#000;stroke-width:200;stroke-linecap:butt;stroke-linejoin:miter;stroke-miterlimit:10;stroke-opacity:1;stroke-dasharray:none" transform="matrix(.13 0 0 -.13 148.125 780.625)"/><path d="M1300 1570c0 309.28-250.72 560-560 560-309.277 0-560-250.72-560-560V820" style="fill:none;stroke:#000;stroke-width:200;stroke-linecap:butt;stroke-linejoin:miter;stroke-miterlimit:10;stroke-opacity:1;stroke-dasharray:none" transform="matrix(.13 0 0 -.13 148.125 780.625)"/><path d="M2540 4320c0 994.11-805.89 1800-1800 1800-994.109 0-1800-805.89-1800-1800s805.891-1800 1800-1800c994.11 0 1800 805.89 1800 1800" style="fill:none;stroke:#000;stroke-width:250;stroke-linecap:butt;stroke-linejoin:miter;stroke-miterlimit:10;stroke-opacity:1;stroke-dasharray:none" transform="matrix(.13 0 0 -.13 148.125 780.625)"/><path d="M42.796 397.622h15.3v50.7h-15.3z" style="fill:#fff;fill-opacity:1;stroke:none" transform="rotate(-30.097 -527.7 -141.875)"/><path d="M239.1 315.9h8.1v5.1h-8.1z" style="fill:#fff;fill-opacity:1;stroke:none" transform="translate(0 -283.75)"/><path d="M242.7 315.3h8.1v5.1h-8.1z" style="fill:#fff;fill-opacity:1;stroke:none" transform="translate(0 -283.75)"/></svg>

<?xml version="1.0" encoding="UTF-8" standalone="no"?>
<!-- Created with Inkscape (http://www.inkscape.org/) -->

<svg
   xmlns:dc="http://purl.org/dc/elements/1.1/"
   xmlns:cc="http://creativecommons.org/ns#"
   xmlns:rdf="http://www.w3.org/1999/02/22-rdf-syntax-ns#"
   xmlns:svg="http://www.w3.org/2000/svg"
   xmlns="http://www.w3.org/2000/svg"
   xmlns:sodipodi="http://sodipodi.sourceforge.net/DTD/sodipodi-0.dtd"
   xmlns:inkscape="http://www.inkscape.org/namespaces/inkscape"
   version="1.1"
   width="481.25"
   height="706.25"
   id="svg2"
   xml:space="preserve"
   inkscape:version="0.48.4 r9939"
   sodipodi:docname="SVaPita.svg"><sodipodi:namedview
     pagecolor="#ffffff"
     bordercolor="#666666"
     borderopacity="1"
     objecttolerance="10"
     gridtolerance="10"
     guidetolerance="10"
     inkscape:pageopacity="0"
     inkscape:pageshadow="2"
     inkscape:window-width="1920"
     inkscape:window-height="1012"
     id="namedview11"
     showgrid="false"
     inkscape:zoom="0.58925565"
     inkscape:cx="351.95263"
     inkscape:cy="517.79089"
     inkscape:window-x="-8"
     inkscape:window-y="-8"
     inkscape:window-maximized="1"
     inkscape:current-layer="svg2" /><metadata
     id="metadata8"><rdf:RDF><cc:Work
         rdf:about=""><dc:format>image/svg+xml</dc:format><dc:type
           rdf:resource="http://purl.org/dc/dcmitype/StillImage" /></cc:Work></rdf:RDF></metadata><defs
     id="defs6" /><g
     id="g2994"
     transform="translate(0,-283.75)"><g
       id="g10"
       transform="matrix(1.25,0,0,-1.25,148.125,1064.375)"><g
         id="g12"
         transform="scale(0.1,0.1)"><path
           style="fill:none;stroke:#000000;stroke-width:250;stroke-linecap:butt;stroke-linejoin:miter;stroke-miterlimit:10;stroke-opacity:1;stroke-dasharray:none"
           id="path14"
           inkscape:connector-curvature="0"
           d="m -210,720 1860,0 m -930,1310 0,790" /><path
           style="fill:none;stroke:#000000;stroke-width:200;stroke-linecap:butt;stroke-linejoin:miter;stroke-miterlimit:10;stroke-opacity:1;stroke-dasharray:none"
           id="path16"
           inkscape:connector-curvature="0"
           d="m -210,720 1860,0 m -930,1310 0,790 -720,1250 1440,0 -720,-1250 0,2900 -720,-1250 1440,0 -720,1250 m -600,-1100 1200,0 m -100,150 -1000,0 m 100,200 800,0 m -100,200 -600,0 m 150,200 300,0 m -750,-1450 1200,0 m -100,-150 -1000,0 m 100,-200 800,0 m -100,-200 -600,0 m 150,-200 300,0 m 430,-2350 0,750" /><path
           style="fill:none;stroke:#000000;stroke-width:200;stroke-linecap:butt;stroke-linejoin:miter;stroke-miterlimit:10;stroke-opacity:1;stroke-dasharray:none"
           id="path18"
           inkscape:connector-curvature="0"
           d="m 1300,1570 c 0,309.28 -250.72,560 -560,560 -309.277,0 -560,-250.72 -560,-560 l 0,-750" /><path
           style="fill:none;stroke:#000000;stroke-width:250;stroke-linecap:butt;stroke-linejoin:miter;stroke-miterlimit:10;stroke-opacity:1;stroke-dasharray:none"
           id="path20"
           inkscape:connector-curvature="0"
           d="m 2540,4320 c 0,994.11 -805.89,1800 -1800,1800 -994.109,0 -1800,-805.89 -1800,-1800 0,-994.11 805.891,-1800 1800,-1800 994.11,0 1800,805.89 1800,1800" /></g></g><rect
       transform="matrix(0.8651787,-0.50146367,0.50146367,0.8651787,0,0)"
       y="397.62247"
       x="42.795853"
       height="50.700001"
       width="15.3"
       id="rect2988"
       style="fill:#ffffff;fill-opacity:1;stroke:none" /><rect
       y="315.89999"
       x="239.09999"
       height="5.0999999"
       width="8.1000004"
       id="rect2990"
       style="fill:#ffffff;fill-opacity:1;stroke:none" /><rect
       style="fill:#ffffff;fill-opacity:1;stroke:none"
       id="rect2992"
       width="8.1000004"
       height="5.0999999"
       x="242.7"
       y="315.29999" /></g></svg>
